T: Murphy's Nails
M: 2/4
L: 1/8
K: Dmaj
de/d/ cd|AF D2|ec AB/c/|de fe|!de/d/ cd|AF D2|ec AB/c/|d2 d2:|!
fd f/g/a|bg ed|c/B/A Bc|de fe|!fd f/g/a|bg ed|c/B/A Bc|d2 d2:|!
